X:1
T:A Trip To Syria
T:A Trip To Syria
T:Oriental Idyll
T:By (Alexander Maloof.) 
T:Unpublished
T:Unpublished
T:Unpublished
T:Unpublished
T:Unpublished
T:Unpublished
C:By (Alexander Maloof.)
Z:Unpublished
%%score { ( 1 3 ) | ( 2 4 ) }
L:1/8
Q:1/4=90
M:2/4
K:F
V:1 treble nm="Piano" snm="Pno."
V:3 treble 
V:2 bass 
V:4 bass 
V:1
"^All in ma non troppo" [dd']2 [^c^c']>[Bb] | .[Aa].[Gg] .[Ff].[Ee] | [Dd]2!>(! E/D/^C/D/ | %3
 !>!D3!>)! || (A, | D>^C D/E/F/G/ | A3)!<(! (^c/d/ | e/f/e/d/ ^c/d/B/c/ | A3)!<)! (g/a/ | %9
 b/c'/b/a/ g)(b | a/b/a/g/ fa) |!<(! (g/a/g/f/ e/f/g/f/!<)! | e/!>(!d/^c/B/ A/G/F/E/!>)! | %13
 D>)(^C D/E/F/G/ | A3)!<(! (^c/d/ | e/f/e/d/ ^c/d/B/c/ | A3)!<)! G/A/ | (B/c/B/A/ G/A/G/B/ | %18
 A/B/A/G/ F/G/F/G/ | G/A/G/F/ E/A/F/E/ | D3) || (^c/d/ | e2 e/d/^c/d/) | e2 e/d/^c/d/ | %24
 e/f/e/d/ ^c/d/_B/c/ | A3 g/a/ | .[b^c']/.[bc']/.[bc']/.[bc']/ .[bc']/a/g/a/ | %27
 [b^c']/[bc']/[bc']/[bc']/ [bc']/a/g/a/ | [cc']>[Bb] [Aa][Gg] | [Ff]3 (E/F/ | G2) z/ (F/E/F/ | %31
 G2) z/ F/E/F/ | G/A/G/F/ E/F/E/D/ | ^C3 G/A/ | B/d/^c/B/ A/c/B/A/ | G/B/A/G/ F/A/G/F/ | E4 | D4 | %38
 z4 | B/c/B/A/ G/A/G/B/ | A/B/A/G/ F/G/F/G/ | G/A/G/F/ E/G/F/E/ | D3 x || %43
"^Andante expressio"!p! [^CE]2 [CE]>[=B,D] | [^CE]4 |{CD} [DF]2 [DF]>E | [DF]4 | %47
{EF} [EG]2 [EG]>[DF] | [EG]4 |{FG} [FA]2 [FA]>G | [FA]4 | [A,DFA]2!f! [B,B][^C^c] | %52
 [DFAd]2 [A,DFA]2 | [B,DGB]2 [^C^c]>[B,B] | [A,DFA]4 | [B,DG]2 [B,DA]>[B,DG] | %56
 [A,DF]2 [B,DG]>[A,DF] | [G,^CE]4 | [F,A,D]4 | [dfd']2 [dfad']>[^c^c'] | [dfad']2 [Adfa]2 | %61
 [Bdgb]2 [^cgb^c']>[Bb] | [Adfa]4 | [GBdg]2 [Aa]>[Gg] | [Fdf]2 [Gdg]>[Ff] | [E^ce]2 [Acea]2 || z4 | %67
 z4 ||[K:C][M:4/4]{/c} c'2{/c} c'2{/c} c'2{/c} c'2 | %69
 (c'/d'/c'/b/ c'/d'/c'/b/) (c'/d'/c'/b/ c'/d'/c'/b/) |{/B} b2{/B} b2{/B} b2{/B} b2 | %71
 d'/e'/d'/c'/ b/c'/b/a/ g(g' g2) | z2 (g/a/b/c'/) !>!d'd !>!d'd | (d'/d/d'/d/ d'/d/c'/b/ a2) z2 |: %74
"_cresc." (a/b/a/g/ a/b/a/g/ a/b/a/g/ a/b/a/g/) | (f/g/f/e/ f/g/f/e/ f/g/f/e/ f/g/f/e/) | %76
 a a g g (g/f/g/a/) f2 | a a f/g/f/g/ f/e/f/g/ e2 :| g f f e e d f e | e x d4 (D/E/F/G/) | %80
 (A/_B/G/A/ B/c/A/B/ G/A/F/A/ G2) | (G/A/F/G/ A/_B/G/A/ F/G/E/G/ F2) | %82
 (F/G/E/F/ G/A/F/G/ E/D/E/F/ E/F/D/C/) | D2 ^C/D/E/F/ G/A/_B/^c/ d/e/f/g/ | %84
 (a/_b/g/a/ b/c'/a/b/ g/a/f/a/ g2) | (g/a/f/g/ a/_b/g/a/ f/g/e/g/ f2) | %86
 f/g/e/f/ g/a/f/g/ e/d/e/f/ e/f/d/c/ |: d4 z4 :|[M:2/4] d4 |: %89
[M:4/4]{/d} d'2{/d} d'2{/d} d'2{/d} d'2 | d'c'/_b/ c'b/a/ ba/g/ ag/f/ | g2{/G} g2{/G} g2{/G} g2 | %92
 c'_b/a/ ba/g/ ag/f/ gf/e/ | f2{/F} f2{/F} f2{/F} f2 | ag/f/ gf/e/ fe/d/ ed/c/ | d2 d2 d2 d2 | %96
 dc/B/ cB/A/ _BA/G/ AG/F/ | G2 G2 G2 G2 | c_B/A/ BA/G/ AG/F/ GF/E/ | F2 [Ff]2 [Ff]2 [Ff]2 | %100
 AG/F/ GF/E/ FE/D/ ED/C/ | D2 [Dd]2 A2 G2 |{a_b^c'} .d'2 z2 z4 | z2 z (3a/_b/^c'/ .d'2 z2 || %104
V:2
 [D,D]2 [^C,^C]>[B,,B,] | [A,,A,][G,,G,] [F,,F,][E,,E,] | [D,,D,]2 [A,,,E,,A,,][A,,,E,,A,,] | %3
 !>![D,,A,,D,]3 || A,, | D,,2 [A,,D,][A,,D,] | D,,2 [A,,D,][A,,D,] | D,,2 [B,,D,][B,,D,] | %8
 D,,2 [A,,D,][A,,D,] | G,,2 [D,G,][D,G,] | A,,2 [D,A,][D,A,] | A,,2 [E,A,][E,A,] | %12
 A,,2 [E,A,][E,A,] | D,,2 [A,,D,][A,,D,] | D,,2 [A,,D,][A,,D,] | D,,2 [B,,D,][B,,D,] | %16
 D,,2 [A,,D,][A,,D,] | G,,2 [D,G,][D,G,] | A,,2 [D,A,][D,A,] | A,,2 [D,A,][D,A,] | D,,2 [A,,D,] || %21
 z |[K:treble] [A,EG]3 [_B,EG] | [A,EG]3 [_B,EG] | [A,EG]2 [A,EG]2 | [A,EG]2 [A,EG]2 | %26
[K:bass] G,2 [B,D]2 | D,2 [B,D]2 |"^rall" G,2 [B,D]2 | D,2 [B,D]2 | [A,,E,G,]3 z | [A,,E,G,]3 z | %32
 [A,,E,G,]3 z | [A,,E,G,]3 z | [G,,D,G,]3 z | [A,,D,A,]3 z | [A,,E,A,]2 [A,,E,A,]2 | D,>A, D,>A, | %38
 D,>A, D,>A, | G,,>[D,A,] [D,G,][D,G,] | A,,>[D,A,] [D,A,][D,A,] | A,,>[D,A,] [E,A,][E,A,] | %42
 D,,2 [A,,D,]2 || [A,,E,]4 | [A,,E,]4 | [D,,D,]4 | [D,,D,]4 | [A,,,A,,]4 | [A,,,A,,]4 | [D,A,]4 | %50
 [D,A,]4 | [D,,D,]4 | [D,,D,]4 | [G,,G,]4 | [D,,D,]4 | [A,,,A,,]4 | [A,,,A,,]4 | !//-!A,,,2 A,,2 | %58
 !//-!A,,,2 A,,2 | [D,,D,]2 [F,A,D]2 | [D,,D,]2 [F,A,D]2 | [D,,D,]2 [G,B,D]2 | [D,,D,]2 [G,B,D]2 | %63
 [G,,G,]2 [G,B,D]2 | [A,,A,]2 [F,A,D]2 | [A,,A,]2 [A,,A,]>[B,,B,] || G,>G, D,2 | G,>G, D,2 || %68
[K:C][M:4/4]!ped! (C,G,EG,)!ped-up!!ped! (C,G,EG,)!ped-up! | %69
"_Ped sempre simile"!ped! (C,G,EG,)!ped-up!!ped! (C,G,EG,)!ped-up! | %70
!ped! (G,,D,B,D,)!ped-up!!ped! (G,,D,B,D,)!ped-up! | %71
!ped! (G,,D,B,D,)!ped-up!!ped! (G,,D,B,D,)!ped-up! | %72
!ped! (G,,D,G,D,)!ped-up!!ped! (G,,D,G,D,)!ped-up! | %73
!ped! (G,,D,G,D,)!ped-up!!ped! (G,,D,G,D,)!ped-up! |: A,,E,A,E, A,,E,A,E, | F,,B,,F,C, F,,C,F,C, | %76
 A,,A, A,,G, G,,G, F,,F, | A,,A, F,,F, F,,F, E,,E, :| %78
 [G,,G,][F,,F,] [F,,F,][E,,E,] E,,[D,,D,] [F,,F,][E,,E,] | [E,,E,][D,,D,] D,,G,,[D,,D,]A,, D,, z | %80
 D,,D,A,,D, (D,,D,A,,D,) | (D,,D,_B,,D,) (D,,D,A,,D,) | (D,,D,_B,,D,) (D,,D,B,,D,) | %83
 (D,,D,) z2 z4 | (D,DA,D) (D,D_B,D) | (D,D_B,D) (D,DA,D) | (D,D_B,D) (D,DA,D) |: %87
 [D,D]A, [D,D]A, [D,D]A, [D,D]A, :|[M:2/4] [D,D]4 |:[M:4/4] [_B,,E,]F,DF, [B,,F,]F,DF, | %90
 _B,,F,DF, B,,F,DF, | G,,D,B,D, G,,D,A,D, | C,G,CG, C,G,CG, | D,A,DA, D,A,DA, | %94
 A,,E,A,E, A,,E,A,E, | [D,,D,]A,, [D,,D,]A,, [D,,D,]A,, D,,A,, | D,D C,C _B,,_B, A,,A, | %97
 [G,,G,]D, [G,,G,]D, [G,,G,]D, [G,,G,]D, | C,C _B,,_B, A,,A, A,,G, | %99
 [F,,F,]C, [F,,F,]C, [F,,F,]C, [F,,F,]C, | A,,A, G,,G, F,,F, E,,E, | %101
 !^![D,,D,]A,, !^![D,,D,]A,, !^![D,,D,]A,, !^![D,,D,]A,, | %102
 !^![D,,D,]A,, !^![D,,D,]A,, !^![D,,D,]A,, !^![D,,D,]A,, | [D,,D,]2 z2 z2 z2 || %104
V:3
 x4 | x4 | x E/F/ x2 | x3 || x | x4 | x4 | x4 | x4 | x4 | x4 | x4 | x4 | x4 | x4 | x4 | x4 | x4 | %18
 x4 | x4 | x3 || x | x4 | x4 | x4 | x4 | x4 | x4 | x4 | x4 | x4 | x4 | x4 | x4 | x4 | x4 | x4 | %37
 x4 | x4 | x4 | x4 | x4 | x4 || x4 | x4 | x4 | x4 | x4 | x4 | x4 | x4 | x4 | x4 | x4 | x4 | x4 | %56
 x4 | x4 | x4 | x4 | x4 | x4 | x4 | x4 | x4 | x4 || x4 | x4 ||[K:C][M:4/4] x8 | x8 | x8 | x8 | x8 | %73
 x8 |: x8 | x8 | a/b/a/b/ g/a/g/a/ x4 | a/b/a/b/ x6 :| g/a/f/g/ f/g/e/f/ e/f/d f/g/e/f/ | %79
 e/f/d/c/ x6 | x8 | x8 | x8 | x8 | x8 | x8 | x8 |: x8 :|[M:2/4] x4 |:[M:4/4] x8 | x8 | x8 | x8 | %93
 x8 | x8 | x8 | x8 | x8 | x8 | x8 | x8 | x8 | x8 | x8 || %104
V:4
 x4 | x4 | x4 | x3 || x | D,,4 | D,,4 | D,,4 | D,,4 | G,,4 | A,,4 | A,,4 | A,,4 | D,,4 | D,,4 | %15
 D,,4 | D,,4 | G,,4 | A,,4 | A,,4 | D,,3 || x |[K:treble] x4 | x4 | x4 | x4 |[K:bass] x4 | x4 | %28
 x4 | x4 | x4 | x4 | x4 | x4 | x4 | x4 | x4 | x4 | x4 | G,,4 | A,,4 | A,,4 | D,,4 || x4 | x4 | x4 | %46
 x4 | x4 | x4 | x4 | x4 | x4 | x4 | x4 | x4 | x4 | x4 | x4 | x4 | x4 | x4 | x4 | x4 | x4 | x4 | %65
 x4 || x4 | x4 ||[K:C][M:4/4] x8 | x8 | x8 | x8 | x8 | x8 |: x8 | x8 | x8 | x8 :| x8 | x8 | x8 | %81
 x8 | x8 | x8 | x8 | x8 | x8 |: x8 :|[M:2/4] x4 |:[M:4/4] x8 | x8 | x8 | x8 | x8 | x8 | x8 | x8 | %97
 x8 | x8 | x8 | x8 | x8 | x8 | x8 || %104

